Origami/64x64/apps/gnome-robots.svg

<svg width="64" height="64" version="1" xmlns="http://www.w3.org/2000/svg">
 <rect x="10" y="22" width="44" height="20" style="fill:#4f4f4f"/>
 <path d="m5.8898 23c-0.2494 0.656-0.4786 1.322-0.6796 2h53.58c-0.204-0.678-0.434-1.344-0.682-2h-52.22zm-0.6796 18c3.4314 11.58 14.067 20 26.788 20 12.722 0 23.358-8.42 26.79-20h-0.68c-4.01 10.536-14.134 18-26.11 18s-22.1-7.464-26.11-18h-0.678z" style="opacity:.2"/>
 <path d="m31.9992 4c-12.722 0-23.358 8.4206-26.788 20h53.578c-3.432-11.5794-14.068-20-26.79-20zm-26.788 36c3.4314 11.58 14.067 20 26.788 20 12.722 0 23.358-8.42 26.79-20h-53.58z" style="fill:#cccccc"/>
 <circle cx="31.999" cy="33" r="6" style="opacity:.2"/>
 <circle cx="31.999" cy="32" r="6" style="fill:#ff6363"/>
 <circle cx="45.999" cy="33" r="6" style="opacity:.2"/>
 <circle cx="45.999" cy="32" r="6" style="fill:#ff6363"/>
 <circle cx="17.997" cy="33" r="6" style="opacity:.2"/>
 <circle cx="17.997" cy="32" r="6" style="fill:#ff6363"/>
 <path d="m32 4c-12.722 0-23.359062 8.4206-26.789062 20h0.3398437c3.7351012-11.056115 14.099932-19 26.449219-19s22.712288 7.943885 26.449219 19h0.339843c-3.432-11.5794-14.067062-20-26.789062-20zm-26.789062 36c0.1005 0.339 0.2262438 0.66675 0.3398437 1h52.900391c0.11375-0.33325 0.238844-0.661 0.339844-1h-53.580078z" style="fill:#ffffff;opacity:.2"/>
</svg>

<svg xmlns="http://www.w3.org/2000/svg" width="64" height="64" version="1">
 <rect style="fill:#4f4f4f" width="44" height="20" x="10" y="22"/>
 <path style="opacity:0.2" d="m 5.8898,23 c -0.2494,0.656 -0.4786,1.322 -0.6796,2 l 53.58,0 c -0.204,-0.678 -0.434,-1.344 -0.682,-2 l -52.22,0 z M 5.2102,41 c 3.4314,11.58 14.067,20 26.788,20 12.722,0 23.358,-8.42 26.79,-20 l -0.68,0 c -4.01,10.536 -14.134,18 -26.11,18 -11.976,0 -22.1,-7.464 -26.11,-18 l -0.678,0 z"/>
 <path style="fill:#cccccc" d="M 31.9992,4 C 19.2772,4 8.6412,12.4206 5.2112,24 l 53.578,0 C 55.3572,12.4206 44.7212,4 31.9992,4 Z M 5.2112,40 c 3.4314,11.58 14.067,20 26.788,20 12.722,0 23.358,-8.42 26.79,-20 l -53.58,0 z"/>
 <circle style="opacity:0.2" cx="31.999" cy="33" r="6"/>
 <circle style="fill:#ff6363" cx="31.999" cy="32" r="6"/>
 <circle style="opacity:0.2" cx="45.999" cy="33" r="6"/>
 <circle style="fill:#ff6363" cx="45.999" cy="32" r="6"/>
 <circle style="opacity:0.2" cx="17.997" cy="33" r="6"/>
 <circle style="fill:#ff6363" cx="17.997" cy="32" r="6"/>
 <path style="opacity:0.2;fill:#ffffff" d="M 32 4 C 19.278 4 8.6409375 12.4206 5.2109375 24 L 5.5507812 24 C 9.2858824 12.943885 19.650713 5 32 5 C 44.349287 5 54.712288 12.943885 58.449219 24 L 58.789062 24 C 55.357062 12.4206 44.722 4 32 4 z M 5.2109375 40 C 5.3114375 40.339 5.4371813 40.66675 5.5507812 41 L 58.451172 41 C 58.564922 40.66675 58.690016 40.339 58.791016 40 L 5.2109375 40 z"/>
</svg>
